T: Johnny Gorman's
M: 4/4
L: 1/8
K: Gmaj
Duck luck|muck tuck|suck puck|buck fuuu|
DB,DE GFGA|B2 BA ~B3c|d2 ge dBAB|1 G2 g2 g2 GE:|2 G2 g2 g3a||
bagb a2 fa|gfeg dcBc|d2 ge dBAB|GEED Eega|
bagb a2 fa|gfeg dcBc|d2 ge dBAB|1 G2 g2 g3a:|2 [G6G,6] GE||
